X: 4636
T: Bowna
R: slide
M: 12/8
K: Gmajor
d2B BAB c2B A2B|c3 cBc e2d B2c|
d2B BAB c2B A2B|1 c2e d2B G3 gfe:|2 c2e d2B G3 GBd||
g3 gfg a2g fed|e3 ede f2e def|
g3 gfg a2g fed|1 efg a2g fef g2d:|2 efg a2g fef g2e||

